X: 38404
T: Star Of Munster, The
R: reel
M: 4/4
K: Adorian
|:[cE]BAc [B2D2] GB|AGEF GED2|[A,E]AAG ABcd|[e3A3] e dBGB|
[EA]ccA [B3D3] B|[A2D2] AA GED2|[A,E]AAG ABcd|[c3E3] B [A4E4]:|
|:[eA]aab [Aa]g[eA]e|aebe agef|[g2B2] ga gede|[gB]aba [gB]ede|
[eA]aab [Aa]g[eA]e|aebe agef|[g2B2] gg [a2A2] aa|b2 a2 gede:|
"Variations of first part"|:Ac (3ccc AB (3BBB|AGEF GED2|[A,E]A (3AAA ABcd|eage dBGB|
[E2A2] [c2E2] [B4D4G,4]|[A2D2] AA GED2|[A,E]A (3AAA ABcd|[c3E3] B [A4E4]:|

